X: 258
T: Son of the Prairie (reel) 
C: B.Black 12/07
N: 192247
M: 4/4
L: 1/8
Q: 1/4=180
R: reel
K: A
AF | "A" E3c "Bm"BABc | "A"efec "Bm"BAFD | "A"EA ~A2 "D"FAdf | "A"ecAc "E"B2GF |
"A"EA ~A2 "Bm"FB ~B2 | "E"GBed "F#m"cBAF | "A"EAcA "Bm"BAFD | "E"EFGB "A"A2 :|
z2 | "A"eaga "E"bgeg | "Bm"afdB "F#m"Acef | "A"e2 cA "D"defa | "A"ecAc "E"B4 |
"A"eaga "E"bgeg | "Bm"afdB "F#m"Acef | "A"e2 (3cBA "Bm"BAFD | "E"EFGB "A"A2 :|
%%%%%%%%%%%%%%%%%%%%%%%%%
